X:1
T:Jesu, thy blood and righteousness
T:Jesu, thy blood and righteousness - Justification (John Eagleton)
C:John Eagleton
Z:p10, Sacred Harmony,
Z:London: [1816]
%%score [ 1 2 3 4 ]
L:1/8
M:2/2
K:E
V:1 treble nm="SOPRANO" snm="S."
V:2 treble nm="ALTO" snm="A."
V:3 treble-8 transpose=-12 nm="TENOR" snm="T."
V:4 bass nm="BASS" snm="B."
V:1
"^Moderato maestoso" B4 B3 B | B6 B2 | c4 d4 | e8 | e4 e2 e2 | d4 B4 | c4 ^A4 | B8 | B4 e3 d | %9
w: Ah! give to|all thy|ser- vants,|Lord,|With pow’r to|speak thy|gra- cious|word;|That all who|
w: Je- su, thy|blood and|right- eous-|ness|My beau- ty|are, my|glo- rious|dress:|Midst flam- ing|
w: Bold shall I|stand in|thy great|day;|For who aught|to my|charge shall|lay?|Ful- ly ab-|
 e4 g4 | (f2 e2) (d2 c2) | !fermata!B4 z2 G2 | (A3 B c2) c2 | (B3 A G2) B2 | A4 G4 | %15
w: to thy|wounds _ will _|flee May|find _ _ e-|ter- * * nal|life in|
w: worlds, in|these _ ar- *|rayed, With|joy _ _ shall|I _ _ lift|up my|
w: solved through|these _ I _|am, From|sin _ _ and|fear, _ _ from|guilt and|
 !fermata!F4 z2 B2 | (e3 d e2) f2 | (g3 f e2) B2 | (c2 f2) (e2 d2) | e8 |] %20
w: thee, may|find _ _ e-|ter- * * nal|life _ in _|thee.|
w: head, with|joy _ _ shall|I _ _ lift|up _ my _|head.|
w: shame, from|sin _ _ and|fear, _ _ from|guilt _ and _|shame.|
V:2
 E4 E3 E | (E2 D2 E2) E2 | E4 A4 | G8 | G4 G2 G2 | F6 D2 | E4 C4 | D8 | E4 G3 A | G4 B4 | F4 F4 | %11
w: Ah! give to|all _ _ thy|ser- vants,|Lord,|With pow’r to|speak thy|gra- cious|word;|That all who|to thy|wounds will|
w: Je- su, thy|blood _ _ and|right- eous-|ness|My beau- ty|are, my|glo- rious|dress:|Midst flam- ing|worlds, in|these ar-|
w: Bold shall I|stand _ _ in|thy great|day;|For who aught|to my|charge shall|lay?|Ful- ly ab-|solved through|these I|
 !fermata!D4 z4 | z4 z2 E2 | E3 D E2 E2 | (C2 D2) E4 | !fermata!D4 z2 E2 | (G3 A G2) F2 | B6 G2 | %18
w: flee|May|find e- ter- nal|life _ in|thee, may|find _ _ e-|ter- nal|
w: rayed,|With|joy shall I lift|up _ my|head, with|joy _ _ shall|I lift|
w: am,|From|sin and fear, from|guilt _ and|shame, from|sin _ _ and|fear, from|
 A4 (G2 F2) | G8 |] %20
w: life in _|thee.|
w: up my _|head.|
w: guilt and _|shame.|
V:3
 G4 G3 G | (G2 A2 B2) G2 | c4 B4 | B8 | B4 B2 B2 | B4 F4 | G4 F4 | F8 | G4 B3 B | B4 e4 | %10
w: Ah! give to|all _ _ thy|ser- vants,|Lord,|With pow’r to|speak thy|gra- cious|word;|That all who|to thy|
w: Je- su, thy|blood _ _ and|right- eous-|ness|My beau- ty|are, my|glo- rious|dress:|Midst flam- ing|worlds, in|
w: Bold shall I|stand _ _ in|thy great|day;|For who aught|to my|charge shall|lay?|Ful- ly ab-|solved through|
 (d2 c2) (B2 ^A2) | !fermata!B4 z4 | z8 | z8 | z8 | z4 z2 G2 | B6 B2 | (G2 B4) e2 | (e2 c2) B4 | %19
w: wounds _ will _|flee||||May|find e-|ter- * nal|life _ in|
w: these _ ar- *|rayed,||||With|joy shall|I _ lift|up _ my|
w: these _ I _|am,||||From|sin and|fear, _ from|guilt _ and|
 B8 |] %20
w: thee.|
w: head.|
w: shame.|
V:4
 E,4 E,3 E, | (E,2"^43" F,2"^6" G,2) E,2 | A,4"^43" F,4 | E,8 | E,4"^6" G,2 E,2 | B,4"^6" D,4 | %6
w: Ah! give to|all _ _ thy|ser- vants,|Lord,|With pow’r to|speak thy|
w: Je- su, thy|blood _ _ and|right- eous-|ness|My beau- ty|are, my|
w: Bold shall I|stand _ _ in|thy great|day;|For who aught|to my|
"^6" E,4"^#" F,4 | B,,8 | E,4 E,3"^43" F, |"^6" G,4 E,4 |"^86""^75" F,4"^64""^5#" F,4 | %11
w: gra- cious|word;|That all who|to thy|wounds will|
w: glo- rious|dress:|Midst flam- ing|worlds, in|these ar-|
w: charge shall|lay?|Ful- ly ab-|solved through|these I|
 !fermata!B,,4 z2 E,2 |"^6" (F,3"^6" G, A,2) A,2 |"^6" (G,3"^43" F, E,2)"^6" G,2 | %14
w: flee May|find _ _ e-|ter- * * nal|
w: rayed, With|joy _ _ shall|I _ _ lift|
w: am, From|sin _ _ and|fear, _ _ from|
"^Emendations: The allocation of parts is not specified in the source, although the bass part is identified by its clef,and the alto part by its range (the alto part is printed in the source in the treble clef an octave above sounding pitch).The melody line is printed immediately above the bass in the source, and these two parts are bracketed together,with the bass part being figured: the title page of the book describes the tunes as 'figured for the Organ, PianoForte, &c.'.On the basis of the style of the tunes, and this suggestion of keyboard accompaniment, it would appear that theair is the soprano part, and it has been treated as such in the present edition (i.e. the original order of parts hasbeen understood as [Tenor - Alto - Soprano - Bass]).The first verse only of the text is given in the source: three subsequent verses have been underlaid editorially.""^5""^6" F,4 E,4 | %15
w: life in|
w: up my|
w: guilt and|
 !fermata!B,,4 z2 E,2 |"^6" (G,3"^43" F, E,2) B,,2 | (E,3 F,"^6" G,2) E,2 | %18
w: thee, may|find _ _ e-|ter- * * nal|
w: head, with|joy _ _ shall|I _ _ lift|
w: shame, from|sin _ _ and|fear, _ _ from|
"^5""^6" A,4"^64""^53" B,4 | E,8 |] %20
w: life in|thee.|
w: up my|head.|
w: guilt and|shame.|

